X: 10622
Q: "With spirit."
M: 6/8
L: 1/8
K: C
[|\
(GA)G (GF)E | A2G c2e | (dg)B {d}ccz | (Bd)G AAB |\
(cd)e (ed)c | B2A BGG | GAB c2c | (cd)e f2e |
(de)f (ed)c | (cB)c dBG | G>AG GFE | G2G c2A |\


